static/img/logo1.svg

<svg width="1000" height="781" viewBox="0 0 1000 781" fill="none" xmlns="http://www.w3.org/2000/svg">
<ellipse cx="489.125" cy="458.904" rx="358.696" ry="315.217" fill="#1F0061"/>
<path d="M982.157 373.212C974.075 287.756 946.426 25.3694 946.035 15.6142C945.589 4.18669 929.312 -10.3632 929.312 10.7638C929.312 25.3688 916.157 193.103 916.157 314.458C914.763 312.395 913.927 311.28 913.927 311.28H883.825C829.753 178.33 686.101 81.8373 515.412 75.9841H511.566H507.775C504.877 75.9841 502.201 75.9841 498.967 75.9841C495.957 75.9841 493.059 75.9841 490.16 75.9841H486.37H482.635C311.891 81.5586 168.182 178.33 114.111 311.28H86.2385L84.0644 314.458C84.0644 193.103 70.8531 25.3688 70.8531 10.7638C70.8531 -10.3632 54.5758 4.18669 54.1299 15.6142C53.7954 25.3694 26.258 287.756 18.0636 373.212C6.19754 389.045 -0.147109 408.335 0.00258947 428.12C0.00258947 459.727 20.9065 493.397 46.6046 493.397C53.1375 511.651 62.0398 528.968 73.083 544.904H114.389C170.133 682.146 321.422 780.534 499.023 780.534C676.624 780.534 827.913 682.146 883.657 544.904H926.971C937.989 528.953 946.889 511.639 953.449 493.397C979.147 493.397 999.995 459.95 999.995 428.12C1000.2 408.362 993.933 389.079 982.157 373.212V373.212ZM498.967 756.732C314.566 756.732 165.117 636.658 165.117 488.49C165.117 377.671 248.732 282.572 367.969 241.655L389.765 295.617C391.64 300.245 394.854 304.208 398.995 306.998C403.137 309.789 408.017 311.279 413.01 311.28H585.482C590.476 311.279 595.356 309.789 599.497 306.998C603.638 304.208 606.852 300.245 608.728 295.617L630.468 241.879C749.426 282.906 832.763 377.838 832.763 488.49C832.763 636.658 683.313 756.732 498.967 756.732Z" fill="#F6C349"/>
<path d="M583.058 422.353C590.146 415.265 599.759 411.282 609.783 411.282C619.807 411.282 629.421 415.265 636.509 422.353C643.597 429.441 647.579 439.054 647.579 449.078V545.07C647.579 555.093 643.597 564.707 636.509 571.795C629.421 578.883 619.807 582.864 609.783 582.864C599.759 582.864 590.146 578.883 583.058 571.795C575.97 564.707 571.988 555.093 571.988 545.07V449.078C571.988 439.054 575.97 429.441 583.058 422.353Z" fill="white" stroke="white" stroke-width="3.56559"/>
<path d="M499.45 673.782C476.484 673.782 457.754 657.06 457.754 636.602H471.244C471.244 649.701 483.898 660.349 499.45 660.349C515.003 660.349 527.712 649.701 527.712 636.602H541.203C541.203 657.115 522.473 673.782 499.45 673.782Z" fill="white" stroke="white" stroke-width="1.7828" stroke-miterlimit="10"/>
<path d="M361.359 422.353C368.447 415.265 378.061 411.282 388.085 411.282C398.109 411.282 407.722 415.265 414.81 422.353C421.898 429.441 425.88 439.054 425.88 449.078V545.07C425.88 555.093 421.898 564.707 414.81 571.795C407.722 578.883 398.109 582.864 388.085 582.864C378.061 582.864 368.447 578.883 361.359 571.795C354.271 564.707 350.289 555.093 350.289 545.07V449.078C350.289 439.054 354.271 429.441 361.359 422.353Z" fill="white" stroke="white" stroke-width="3.56559"/>
</svg>

<?xml version="1.0" encoding="utf-8"?>
<!-- Generator: Adobe Illustrator 27.9.4, SVG Export Plug-In . SVG Version: 9.03 Build 54784)  -->
<svg version="1.1" id="Layer_1" xmlns="http://www.w3.org/2000/svg" xmlns:xlink="http://www.w3.org/1999/xlink" x="0px" y="0px"
	 viewBox="0 0 1000 781" style="enable-background:new 0 0 1000 781;" xml:space="preserve">
<style type="text/css">
	.st0{fill:#1A1A40;}
	.st1{fill:#F6C349;}
	.st2{fill:#F5F1E6;stroke:#F5F1E6;stroke-width:3.5656;}
	.st3{fill:#F5F1E6;stroke:#F5F1E6;stroke-width:1.7828;stroke-miterlimit:10;}
</style>
<ellipse class="st0" cx="489.1" cy="458.9" rx="358.7" ry="315.2"/>
<path class="st1" d="M982.2,373.2c-8.1-85.5-35.7-347.8-36.1-357.6c-0.4-11.4-16.7-26-16.7-4.9c0,14.6-13.2,182.3-13.2,303.7
	c-1.4-2.1-2.2-3.2-2.2-3.2h-30.1C829.8,178.3,686.1,81.8,515.4,76h-3.8h-3.8c-2.9,0-5.6,0-8.8,0c-3,0-5.9,0-8.8,0h-3.8h-3.7
	c-170.7,5.6-314.5,102.3-368.5,235.3H86.2l-2.2,3.2c0-121.4-13.2-289.1-13.2-303.7c0-21.1-16.3-6.6-16.7,4.9
	c-0.3,9.8-27.9,272.1-36.1,357.6C6.2,389-0.1,408.3,0,428.1c0,31.6,20.9,65.3,46.6,65.3c6.5,18.3,15.4,35.6,26.5,51.5h41.3
	c55.7,137.2,207,235.6,384.6,235.6s328.9-98.4,384.6-235.6H927c11-16,19.9-33.3,26.5-51.5c25.7,0,46.5-33.4,46.5-65.3
	C1000.2,408.4,993.9,389.1,982.2,373.2L982.2,373.2z M499,756.7c-184.4,0-333.9-120.1-333.9-268.2c0-110.8,83.6-205.9,202.9-246.8
	l21.8,54c1.9,4.6,5.1,8.6,9.2,11.4c4.1,2.8,9,4.3,14,4.3h172.5c5,0,9.9-1.5,14-4.3c4.1-2.8,7.4-6.8,9.2-11.4l21.7-53.7
	c119,41,202.3,136,202.3,246.6C832.8,636.7,683.3,756.7,499,756.7z"/>
<path class="st2" d="M583.1,422.4c7.1-7.1,16.7-11.1,26.7-11.1c10,0,19.6,4,26.7,11.1c7.1,7.1,11.1,16.7,11.1,26.7v96
	c0,10-4,19.6-11.1,26.7c-7.1,7.1-16.7,11.1-26.7,11.1c-10,0-19.6-4-26.7-11.1S572,555.1,572,545.1v-96
	C572,439.1,576,429.4,583.1,422.4z"/>
<path class="st3" d="M499.5,673.8c-23,0-41.7-16.7-41.7-37.2h13.5c0,13.1,12.7,23.7,28.2,23.7c15.6,0,28.3-10.6,28.3-23.7h13.5
	C541.2,657.1,522.5,673.8,499.5,673.8z"/>
<path class="st2" d="M361.4,422.4c7.1-7.1,16.7-11.1,26.7-11.1c10,0,19.6,4,26.7,11.1c7.1,7.1,11.1,16.7,11.1,26.7v96
	c0,10-4,19.6-11.1,26.7s-16.7,11.1-26.7,11.1c-10,0-19.6-4-26.7-11.1c-7.1-7.1-11.1-16.7-11.1-26.7v-96
	C350.3,439.1,354.3,429.4,361.4,422.4z"/>
</svg>
